packages/devextreme-scss/images/icons/fluent/packagebox.svg

<svg width="21" height="20" viewBox="0 0 21 20" fill="none" xmlns="http://www.w3.org/2000/svg">
<title>packagebox</title>
<path d="M11.4991 2.4808C10.6646 2.14702 9.73379 2.14702 8.89935 2.4808L3.14213 4.78369C2.57265 5.01148 2.19922 5.56305 2.19922 6.1764V13.8223C2.19922 14.4357 2.57265 14.9873 3.14213 15.2151L8.89935 17.5179C9.73379 17.8517 10.6646 17.8517 11.4991 17.5179L17.2563 15.2151C17.8258 14.9873 18.1992 14.4357 18.1992 13.8223V6.1764C18.1992 5.56305 17.8258 5.01148 17.2563 4.78369L11.4991 2.4808ZM9.27074 3.40928C9.86677 3.17087 10.5317 3.17087 11.1277 3.40928L16.353 5.49941L14.0744 6.41088L7.92055 3.94935L9.27074 3.40928ZM6.57426 4.48787L12.7281 6.94939L10.1994 7.96088L4.04555 5.49935L6.57426 4.48787ZM10.6994 8.83791L17.1992 6.23797V13.8223C17.1992 14.0268 17.0747 14.2106 16.8849 14.2866L11.1277 16.5895C10.9881 16.6453 10.8447 16.6881 10.6994 16.7177V8.83791ZM9.69937 8.83791V16.7178C9.55389 16.6881 9.41043 16.6453 9.27074 16.5895L3.51352 14.2866C3.32369 14.2106 3.19922 14.0268 3.19922 13.8223V6.23785L9.69937 8.83791Z" fill="#242424"/>
</svg>

<!-- Generated by IcoMoon.io -->
<svg version="1.1" xmlns="http://www.w3.org/2000/svg" width="20" height="20" viewBox="0 0 20 20">
<path d="M11.499 2.481c-0.834-0.334-1.765-0.334-2.6 0l-5.757 2.303c-0.569 0.228-0.943 0.779-0.943 1.393v7.646c0 0.613 0.373 1.165 0.943 1.393l5.757 2.303c0.834 0.334 1.765 0.334 2.6 0l5.757-2.303c0.569-0.228 0.943-0.779 0.943-1.393v-7.646c0-0.613-0.373-1.165-0.943-1.393l-5.757-2.303zM9.271 3.409c0.596-0.238 1.261-0.238 1.857 0l5.225 2.090-2.279 0.911-6.154-2.462 1.35-0.54zM6.574 4.488l6.154 2.462-2.529 1.011-6.154-2.462 2.529-1.011zM10.699 8.838l6.5-2.6v7.584c0 0.204-0.124 0.388-0.314 0.464l-5.757 2.303c-0.14 0.056-0.283 0.099-0.428 0.128v-7.88zM9.699 8.838v7.88c-0.145-0.030-0.289-0.073-0.429-0.128l-5.757-2.303c-0.19-0.076-0.314-0.26-0.314-0.464v-7.584l6.5 2.6z"></path>
</svg>
